X:2137
T:Yn shenn eirinagh cheeragh
T:The old country farmer 
C:George Moore, Balladoole 
C:Traditional
O:Isle of Man
Z:Clague collection
B:Kiaull Vannin #137 
M:3/4 
L:1/4
Q:90 
K:G 
D|G G A|B c d|e/c/ d c/B/|G2|+fine+|:B/c/|d d g/f/|e d B/c/|d d e/c/|!D.C.!A2!fine!:|| 

